packages/swarm-icons/src/icons/solid/New Window.svg

<svg xmlns="http://www.w3.org/2000/svg" width="18" height="18" viewBox="0 0 18 18">
  <path fill="#A2A2A2" d="M13.0857864,3.5 L10.5,3.5 C9.94771525,3.5 9.5,3.05228475 9.5,2.5 C9.5,1.94771525 9.94771525,1.5 10.5,1.5 L15.5,1.5 C16.0522847,1.5 16.5,1.94771525 16.5,2.5 L16.5,7.5 C16.5,8.05228475 16.0522847,8.5 15.5,8.5 C14.9477153,8.5 14.5,8.05228475 14.5,7.5 L14.5,4.91421356 L10.2071068,9.20710678 C9.81658249,9.59763107 9.18341751,9.59763107 8.79289322,9.20710678 C8.40236893,8.81658249 8.40236893,8.18341751 8.79289322,7.79289322 L13.0857864,3.5 Z M12,14 L12,11 C12,10.4477153 12.4477153,10 13,10 C13.5522847,10 14,10.4477153 14,11 L14,15 C14,15.5522847 13.5522847,16 13,16 L3,16 C2.44771525,16 2,15.5522847 2,15 L2,5 C2,4.44771525 2.44771525,4 3,4 L7,4 C7.55228475,4 8,4.44771525 8,5 C8,5.55228475 7.55228475,6 7,6 L4,6 L4,14 L12,14 Z"/>
</svg>

<svg xmlns="http://www.w3.org/2000/svg" width="18" height="18"><path fill="#A2A2A2" d="M13.086 3.5H10.5a1 1 0 110-2h5a1 1 0 011 1v5a1 1 0 01-2 0V4.914l-4.293 4.293a1 1 0 01-1.414-1.414L13.086 3.5zM12 14v-3a1 1 0 012 0v4a1 1 0 01-1 1H3a1 1 0 01-1-1V5a1 1 0 011-1h4a1 1 0 110 2H4v8h8z"/></svg>
